images/mfg.svg

<svg height="250" viewBox="0 0 250 250" width="250" xmlns="http://www.w3.org/2000/svg" xmlns:xlink="http://www.w3.org/1999/xlink"><linearGradient id="a"><stop offset="0" stop-color="#e5c45d"/><stop offset="1" stop-color="#987a3b"/></linearGradient><linearGradient id="b" gradientTransform="matrix(1.086957 0 0 -1.131222 0 253.393665)" gradientUnits="userSpaceOnUse" x1="178.427704" x2="101.277702" xlink:href="#a" y1="152.729599" y2="104.349602"/><linearGradient id="c" gradientTransform="matrix(1.086957 0 0 -1.131222 0 253.393665)" gradientUnits="userSpaceOnUse" x1="112.3209" x2="113.620796" xlink:href="#a" y1="33.990601" y2="100.030602"/><linearGradient id="d" gradientTransform="matrix(1.086957 0 0 -1.131222 0 253.393665)" gradientUnits="userSpaceOnUse" x1="44.128101" x2="111.598099" xlink:href="#a" y1="153.706604" y2="115.326599"/><path d="m202.5 152.828125c-40.109375 0-72.71875-33.824219-72.71875-75.679687 0-15.722657 4.675781-30.996094 13.480469-43.777344h-40.871094c23.261719 34.050781 15.542969 81.335937-17.171875 105.542968-12.285156 9.050782-27.066406 14.027344-42.066406 14.027344-2.5 0-5.109375-.113281-7.609375-.453125l20.980469 38.007813c16.519531-38.121094 59.671874-54.976563 96.195312-37.78125 16.085938 7.578125 29.019531 21.039062 36.304688 37.78125l21.085937-38.007813c-2.5.226563-5.109375.339844-7.609375.339844zm0 0" fill="#e5c45d"/><path d="m188.585938 126.46875c0-13.347656 9.132812-24.886719 21.738281-27.375l-21.085938-37.894531c-9.890625 11.425781-26.738281 12.441406-37.714843 2.148437-8.046876-7.464844-10.980469-19.34375-7.394532-29.976562h-.976562c-23.261719 34.050781-15.542969 81.335937 17.171875 105.542968 12.285156 9.050782 27.066406 14.027344 42.066406 14.027344 1.414063 0 2.828125 0 4.132813-.113281-10.761719-3.960937-17.9375-14.480469-17.9375-26.359375zm0 0" fill="url(#b)"/><path d="m90 185.746094c10.871094 6.335937 16.085938 19.570312 12.609375 32.015625h41.519531c-4.5625-14.59375 3.152344-30.316407 17.175782-35.070313 7.066406-2.375 14.78125-1.582031 21.195312 2.148438 2.175781 1.246094 4.238281 2.828125 5.976562 4.753906-17.0625-37.785156-60.324218-54.074219-96.738281-36.3125-15.652343 7.691406-28.261719 20.925781-35.324219 37.328125l.542969.90625c8.476563-9.839844 22.066407-12.105469 33.042969-5.769531zm0 0" fill="url(#c)"/><path d="m102.390625 33.371094h-.542969c4.890625 14.480468-2.390625 30.429687-16.414062 35.519531-10.324219 3.734375-21.847656.566406-29.019532-8.03125l-21.089843 38.121094c14.566406 2.601562 24.351562 16.96875 21.851562 32.128906-1.632812 10.066406-8.480469 18.324219-17.71875 21.605469 1.195313.113281 2.5.113281 3.695313.113281 40.109375 0 72.71875-33.824219 72.71875-75.679687 0-15.609376-4.675782-30.882813-13.480469-43.777344zm0 0" fill="url(#d)"/></svg>

<!-- Generator: Adobe Illustrator 24.0.1, SVG Export Plug-In . SVG Version: 6.00 Build 0)  -->
<svg xmlns="http://www.w3.org/2000/svg" xmlns:xlink="http://www.w3.org/1999/xlink" width="250px" height="250px" viewBox="0 0 250 250" version="1.1">
<defs>
<linearGradient id="linear0" gradientUnits="userSpaceOnUse" x1="178.427704" y1="152.729599" x2="101.277702" y2="104.349602" gradientTransform="matrix(1.086957,0,0,-1.131222,0,253.393665)">
<stop offset="0" style="stop-color:rgb(89.803922%,76.862746%,36.470589%);stop-opacity:1;"/>
<stop offset="1" style="stop-color:rgb(59.607846%,47.843137%,23.137255%);stop-opacity:1;"/>
</linearGradient>
<linearGradient id="linear1" gradientUnits="userSpaceOnUse" x1="112.3209" y1="33.990601" x2="113.620796" y2="100.030602" gradientTransform="matrix(1.086957,0,0,-1.131222,0,253.393665)">
<stop offset="0" style="stop-color:rgb(89.803922%,76.862746%,36.470589%);stop-opacity:1;"/>
<stop offset="1" style="stop-color:rgb(59.607846%,47.843137%,23.137255%);stop-opacity:1;"/>
</linearGradient>
<linearGradient id="linear2" gradientUnits="userSpaceOnUse" x1="44.128101" y1="153.706604" x2="111.598099" y2="115.326599" gradientTransform="matrix(1.086957,0,0,-1.131222,0,253.393665)">
<stop offset="0" style="stop-color:rgb(89.803922%,76.862746%,36.470589%);stop-opacity:1;"/>
<stop offset="1" style="stop-color:rgb(59.607846%,47.843137%,23.137255%);stop-opacity:1;"/>
</linearGradient>
</defs>
<g id="surface1">
<path style=" stroke:none;fill-rule:nonzero;fill:rgb(89.803922%,76.862746%,36.470589%);fill-opacity:1;" d="M 202.5 152.828125 C 162.390625 152.828125 129.78125 119.003906 129.78125 77.148438 C 129.78125 61.425781 134.457031 46.152344 143.261719 33.371094 L 102.390625 33.371094 C 125.652344 67.421875 117.933594 114.707031 85.21875 138.914062 C 72.933594 147.964844 58.152344 152.941406 43.152344 152.941406 C 40.652344 152.941406 38.042969 152.828125 35.542969 152.488281 L 56.523438 190.496094 C 73.042969 152.375 116.195312 135.519531 152.71875 152.714844 C 168.804688 160.292969 181.738281 173.753906 189.023438 190.496094 L 210.109375 152.488281 C 207.609375 152.714844 205 152.828125 202.5 152.828125 Z M 202.5 152.828125 "/>
<path style=" stroke:none;fill-rule:nonzero;fill:url(#linear0);" d="M 188.585938 126.46875 C 188.585938 113.121094 197.71875 101.582031 210.324219 99.09375 L 189.238281 61.199219 C 179.347656 72.625 162.5 73.640625 151.523438 63.347656 C 143.476562 55.882812 140.542969 44.003906 144.128906 33.371094 L 143.152344 33.371094 C 119.890625 67.421875 127.609375 114.707031 160.324219 138.914062 C 172.609375 147.964844 187.390625 152.941406 202.390625 152.941406 C 203.804688 152.941406 205.21875 152.941406 206.523438 152.828125 C 195.761719 148.867188 188.585938 138.347656 188.585938 126.46875 Z M 188.585938 126.46875 "/>
<path style=" stroke:none;fill-rule:nonzero;fill:url(#linear1);" d="M 90 185.746094 C 100.871094 192.082031 106.085938 205.316406 102.609375 217.761719 L 144.128906 217.761719 C 139.566406 203.167969 147.28125 187.445312 161.304688 182.691406 C 168.371094 180.316406 176.085938 181.109375 182.5 184.839844 C 184.675781 186.085938 186.738281 187.667969 188.476562 189.59375 C 171.414062 151.808594 128.152344 135.519531 91.738281 153.28125 C 76.085938 160.972656 63.476562 174.207031 56.414062 190.609375 L 56.957031 191.515625 C 65.433594 181.675781 79.023438 179.410156 90 185.746094 Z M 90 185.746094 "/>
<path style=" stroke:none;fill-rule:nonzero;fill:url(#linear2);" d="M 102.390625 33.371094 L 101.847656 33.371094 C 106.738281 47.851562 99.457031 63.800781 85.433594 68.890625 C 75.109375 72.625 63.585938 69.457031 56.414062 60.859375 L 35.324219 98.980469 C 49.890625 101.582031 59.675781 115.949219 57.175781 131.109375 C 55.542969 141.175781 48.695312 149.433594 39.457031 152.714844 C 40.652344 152.828125 41.957031 152.828125 43.152344 152.828125 C 83.261719 152.828125 115.871094 119.003906 115.871094 77.148438 C 115.871094 61.539062 111.195312 46.265625 102.390625 33.371094 Z M 102.390625 33.371094 "/>
</g>
</svg>
